X: 97
T:Missa Malheur me bat / Gloria
N: Derived from Jos0901b-Missa_Malheur_me_bat-Gloria.krn
C: Josquin des Prez
%%abc-version 2.0
%%abcx-abcm2ps-target-version 5.9.1 (29 Sep 2008)
%%abc-creator hum2abc beta
%%abcx-conversion-date 2019/02/12 16:15:42
%%abc-edited-by Jesse Rodin
%%abc-edited-by Jesse Rodin; Victoria Chang 2011/04/14
%%abcx-initial-encoding-date 2011/04/14/
%%humdrum-veritas 1205753771
%%humdrum-veritas-data 270413389
%%linebreak <none>
%%barnumbers 0
L: 1/4
M: 2/1
Q: 1/2=120
%%staves [1 2 3 4]
V: 1 clef=treble
V: 2 clef=treble-8
V: 3 clef=treble-8
V: 4 clef=bass
K: C
[V:1] z8 | 
[V:2] E8 | 
[V:3] z8 | 
[V:4] z8 | 
[V:1] z8 | 
[V:2] B8 | 
[V:3] z8 | 
[V:4] z8 | 
[V:1] E8 | 
[V:2] c4c4 | 
[V:3] z8 | 
[V:4] z8 | 
[V:1] B8 | 
[V:2] B4G4 | 
[V:3] z8 | 
[V:4] z8 | 
[V:1] c4c4 | 
[V:2] A4A4 | 
[V:3] z8 | 
[V:4] z8 | 
[V:1] B4G4 | 
[V:2] G3AB2c2- | 
[V:3] z8 | 
[V:4] z8 | 
[V:1] A4A4 | 
[V:2] c2BAc2d2 | 
[V:3] z8 | 
[V:4] z8 | 
[V:1] G3AB2E2 | 
[V:2] B2e3dcB | 
[V:3] z8 | 
[V:4] z8 | 
[V:1] F2G2A2E2 | 
[V:2] A2G2c3B | 
[V:3] z8 | 
[V:4] z8 | 
[V:1] F2E4D2 | 
[V:2] A2G2F4 | 
[V:3] z8 | 
[V:4] z8 | 
[V:1] E8 | 
[V:2] E4G4 | 
[V:3] E8 | 
[V:4] z8 | 
[V:1] z8 | 
[V:2] G4G4 | 
[V:3] B4B4 | 
[V:4] z8 | 
[V:1] z2E2C2E2- | 
[V:2] A8 | 
[V:3] c8 | 
[V:4] z8 | 
[V:1] E2DCB,4 | 
[V:2] G6AB | 
[V:3] B4G4 | 
[V:4] z8 | 
[V:1] A,3B,CDE2- | 
[V:2] c4A2c2 | 
[V:3] A8 | 
[V:4] z8 | 
[V:1] EFGAB2c2- | 
[V:2] B2e3dcB | 
[V:3] G4E4 | 
[V:4] z8 | 
[V:1] cBAGA4 | 
[V:2] A3Bc2d2 | 
[V:3] F8 | 
[V:4] z8 | 
[V:1] G8 | 
[V:2] G3Ac2B2- | 
[V:3] z8 | 
[V:4] z2E,2C,2E,2- | 
[V:1] z8 | 
[V:2] BAA4^G2 | 
[V:3] z8 | 
[V:4] E,2D,C,B,,4 | 
[V:1] z2E2C2E2- | 
[V:2] A8 | 
[V:3] z8 | 
[V:4] A,,2C4B,A, | 
[V:1] E2C2B,4 | 
[V:2] E8 | 
[V:3] z8 | 
[V:4] G,2A,4^G,2 | 
[V:1] A,2c4BA | 
[V:2] z2e2c2e2- | 
[V:3] z8 | 
[V:4] A,8 | 
[V:1] G2A4^G2 | 
[V:2] e2dcB4 | 
[V:3] z8 | 
[V:4] E,8 | 
[V:1] A6GF | 
[V:2] A2f4ed | 
[V:3] z8 | 
[V:4] z2A,2F,2A,2- | 
[V:1] E2D2G4 | 
[V:2] c2d4^c2 | 
[V:3] z8 | 
[V:4] A,2F,2E,4 | 
[V:1] F3G_B2A2- | 
[V:2] d4_B2d2- | 
[V:3] z8 | 
[V:4] D,8- | 
[V:1] AGG4^F2 | 
[V:2] d2_B2A4 | 
[V:3] z8 | 
[V:4] D,8 | 
[V:1] G8 | 
[V:2] G8 | 
[V:3] E8 | 
[V:4] z2G,2E,2G,2- | 
[V:1] z8 | 
[V:2] z4d4 | 
[V:3] B4B4 | 
[V:4] G,2E,2D,4 | 
[V:1] z8 | 
[V:2] e3fg2G2- | 
[V:3] c8 | 
[V:4] C,3D,E,F,E,2- | 
[V:1] z8 | 
[V:2] G2A2B2E2 | 
[V:3] B4G4 | 
[V:4] E,2D,C,B,,2E,2 | 
[V:1] z8 | 
[V:2] c3de2E2- | 
[V:3] A8 | 
[V:4] A,,3B,,C,D,C,2- | 
[V:1] z4G4 | 
[V:2] E2F2G2C2 | 
[V:3] G4E4 | 
[V:4] C,2B,,A,,G,,2C,2 | 
[V:1] A4A4 | 
[V:2] c8- | 
[V:3] F8 | 
[V:4] F,,8 | 
[V:1] G6E2 | 
[V:2] c8 | 
[V:3] E3FG2A2- | 
[V:4] C,8 | 
[V:1] E2G2A2B2 | 
[V:2] c6B2 | 
[V:3] A2E2F2G2 | 
[V:4] z8 | 
[V:1] E2G2A3B | 
[V:2] A2G2c2d2 | 
[V:3] A2E2F4 | 
[V:4] z8 | 
[V:1] c2B3Gc2- | 
[V:2] e8 | 
[V:3] E3FG2A2- | 
[V:4] z8 | 
[V:1] c2B2A2G2 | 
[V:2] e3dc2B2 | 
[V:3] A2E2F2G2 | 
[V:4] z8 | 
[V:1] c2B2A4 | 
[V:2] e4c4 | 
[V:3] A2E2F4 | 
[V:4] z8 | 
[V:1] G4z2G2 | 
[V:2] z2c2B2e2- | 
[V:3] E8 | 
[V:4] z4E,4 | 
[V:1] G2G2G2G2 | 
[V:2] e2c2B4 | 
[V:3] z4e4 | 
[V:4] E,4E,4 | 
[V:1] A4F2G2- | 
[V:2] A4z4 | 
[V:3] c4d2e2- | 
[V:4] F,3E,D,2C,2 | 
[V:1] G2FED4 | 
[V:2] z8 | 
[V:3] e2A2B4 | 
[V:4] E,2F,2G,4 | 
[V:1] C4z4 | 
[V:2] z2e2d2g2- | 
[V:3] c4B2G2- | 
[V:4] C,4G,4 | 
[V:1] z8 | 
[V:2] g2fed4 | 
[V:3] G2A2B4 | 
[V:4] E,2F,2G,4 | 
[V:1] G4E3F | 
[V:2] c4g4 | 
[V:3] E8 | 
[V:4] C,8- | 
[V:1] G4C2G2 | 
[V:2] e3fg2G2 | 
[V:3] z4e4 | 
[V:4] C,8 | 
[V:1] E2F2G4 | 
[V:2] A4G2g2 | 
[V:3] c4d2e2- | 
[V:4] z4G,4 | 
[V:1] C4z4 | 
[V:2] e2f2g4 | 
[V:3] e2A2B4 | 
[V:4] A,4G,4 | 
[V:1] z8 | 
[V:2] e2f2g4- | 
[V:3] c4B2G2- | 
[V:4] A,4G,4 | 
[V:1] z8 | 
[V:2] g2fed4 | 
[V:3] G2A2B4 | 
[V:4] E,2F,2G,4 | 
[V:1] G6A2 | 
[V:2] c6BA | 
[V:3] E2e4dc | 
[V:4] C,8 | 
[V:1] B2G4FE | 
[V:2] G4g4- | 
[V:3] dcBAG3A | 
[V:4] z2G,2E,3F, | 
[V:1] D2E2D2G2- | 
[V:2] g4g4 | 
[V:3] B2c2B2e2- | 
[V:4] G,2C,2G,2E,2- | 
[V:1] GFD2E4 | 
[V:2] g4g4 | 
[V:3] edB2c4 | 
[V:4] E,F,G,2C,4 | 
[V:1] D2G4A2 | 
[V:2] g4z4 | 
[V:3] B2e3df2 | 
[V:4] z8 | 
[V:1] B2c4B2 | 
[V:2] z8 | 
[V:3] e2c2d4 | 
[V:4] z8 | 
[V:1] c2A2G4 | 
[V:2] z8 | 
[V:3] z2c4B2 | 
[V:4] C,3D,E,F,G,2 | 
[V:1] z8 | 
[V:2] z8 | 
[V:3] c2A4G2 | 
[V:4] A,2C4B,2 | 
[V:1] z8 | 
[V:2] z8 | 
[V:3] A2c2B4 | 
[V:4] C2A,4G,F, | 
[V:1] z8 | 
[V:2] z8 | 
[V:3] E2e4dc | 
[V:4] G,2E,2G,2A,2 | 
[V:1] z4z2E2 | 
[V:2] z8 | 
[V:3] dcBAG3A | 
[V:4] F,4E,4- | 
[V:1] G3ABAc2- | 
[V:2] z8 | 
[V:3] B2c2B2e2- | 
[V:4] E,4z4 | 
[V:1] cBB4A2 | 
[V:2] z8 | 
[V:3] edB2c4 | 
[V:4] z8 | 
[V:1] B4z4 | 
[V:2] z8 | 
[V:3] B2e3df2 | 
[V:4] E,3F,G,2A,2- | 
[V:1] z8 | 
[V:2] z8 | 
[V:3] e2c2d4 | 
[V:4] A,G,C4B,2 | 
[V:1] z8 | 
[V:2] c4d4 | 
[V:3] z2c4B2 | 
[V:4] C2A,2G,4 | 
[V:1] z8 | 
[V:2] e3dcAB2- | 
[V:3] c2A4G2 | 
[V:4] z8 | 
[V:1] z4d4 | 
[V:2] BAA4^G2 | 
[V:3] A2c2B4 | 
[V:4] z8 | 
[V:1] c3BG2A2- | 
[V:2] A3GE2F2- | 
[V:3] A2e4d2 | 
[V:4] z8 | 
[V:1] AGE2F4 | 
[V:2] F2G2A2B2 | 
[V:3] c2e4d2 | 
[V:4] z8 | 
[V:1] E2G4FE | 
[V:2] c4g4 | 
[V:3] e6dc | 
[V:4] z2C,3D,E,F, | 
[V:1] D2C2D4 | 
[V:2] z2g4fe | 
[V:3] B2c2B2G2- | 
[V:4] G,2C,2G,4 | 
[V:1] z2D2E2G2- | 
[V:2] d4c4 | 
[V:3] GAB2E2e2- | 
[V:4] z2G,,2C,3D, | 
[V:1] G2FED4 | 
[V:2] z4z2d2 | 
[V:3] e2dcB4 | 
[V:4] E,2F,2G,2A,B, | 
[V:1] C4z4 | 
[V:2] e3fg2G2 | 
[V:3] A2e4d2 | 
[V:4] C6B,2 | 
[V:1] z8 | 
[V:2] A2B4A2 | 
[V:3] c2e4d2 | 
[V:4] A,2G,2F,4 | 
[V:1] z2G4FE | 
[V:2] B2c2G4 | 
[V:3] e6dc | 
[V:4] E,2C,3D,E,F, | 
[V:1] D2C2D4 | 
[V:2] z2g4fe | 
[V:3] B2c2B2G2- | 
[V:4] G,2C,2G,4 | 
[V:1] z2D2E2G2- | 
[V:2] d4c4 | 
[V:3] GAB2E2e2- | 
[V:4] z2G,,2C,3D, | 
[V:1] G2FED4 | 
[V:2] z4z2d2 | 
[V:3] e2dcB4 | 
[V:4] E,2F,2G,2A,B, | 
[V:1] C4z4 | 
[V:2] e3dc2B2 | 
[V:3] A2c4d2 | 
[V:4] C3B,A,2G,2 | 
[V:1] z8 | 
[V:2] c4A4 | 
[V:3] A2c4d2 | 
[V:4] F,2E,2F,4 | 
[V:1] G6E2 | 
[V:2] B2e2d2e2 | 
[V:3] e3dB2c2- | 
[V:4] E,3F,G,2C,2 | 
[V:1] A4G4- | 
[V:2] A3BcBe2 | 
[V:3] c2BAe3d | 
[V:4] F,4E,3F, | 
[V:1] G2E2G3F | 
[V:2] d2g2e2g2- | 
[V:3] B2c4BA | 
[V:4] G,2C,2E,3F, | 
[V:1] D8- | 
[V:2] g2fed2G2 | 
[V:3] B8- | 
[V:4] G,8- | 
[V:1] D8 ||  
[V:2] g8 ||  
[V:3] B8 ||  
[V:4] G,8 ||  
[V:1]  [K:C] [K:clef=treble][M:2/1]z8 | 
[V:2]  [K:C] [K:clef=treble-8][M:2/1]e4e2e2 | 
[V:3]  [K:C] [K:clef=treble-8][M:2/1]z8 | 
[V:4]  [K:C] [K:clef=bass][M:2/1]z8 | 
[V:1] z8 | 
[V:2] e4f4 | 
[V:3] z8 | 
[V:4] z8 | 
[V:1] E4E2E2 | 
[V:2] e2g2e2g2- | 
[V:3] z8 | 
[V:4] z8 | 
[V:1] E4F4 | 
[V:2] gfe4d2 | 
[V:3] z8 | 
[V:4] z8 | 
[V:1] E2G2E2G2- | 
[V:2] e8 | 
[V:3] z8 | 
[V:4] E,4E,2E,2 | 
[V:1] GFE4D2 | 
[V:2] z8 | 
[V:3] z8 | 
[V:4] E,4F,4 | 
[V:1] E8 | 
[V:2] z8 | 
[V:3] E4E4 | 
[V:4] E,2G,2E,2G,2- | 
[V:1] z8 | 
[V:2] z8 | 
[V:3] E4F4 | 
[V:4] G,F,E,4D,2 | 
[V:1] z8 | 
[V:2] G4A3B | 
[V:3] E4z2A2- | 
[V:4] E,4A,,4 | 
[V:1] z8 | 
[V:2] c2B3AA2- | 
[V:3] A2G2A4 | 
[V:4] E,4D,2C,2 | 
[V:1] z4z2E2 | 
[V:2] A2^G2A4 | 
[V:3] B4c4 | 
[V:4] B,,4A,,3B,, | 
[V:1] E2E2F2F2 | 
[V:2] E4z4 | 
[V:3] z8 | 
[V:4] C,D,E,4D,2 | 
[V:1] E2G4FE | 
[V:2] z2e2e2e2 | 
[V:3] z8 | 
[V:4] E,4z4 | 
[V:1] D4CDEF | 
[V:2] f2f2e2g2- | 
[V:3] z8 | 
[V:4] z8 | 
[V:1] G2A4GF | 
[V:2] g2fed4 | 
[V:3] z8 | 
[V:4] z8 | 
[V:1] E4z4 | 
[V:2] c4e4- | 
[V:3] z8 | 
[V:4] z4C,4- | 
[V:1] G6G2 | 
[V:2] e2e2e4 | 
[V:3] z8 | 
[V:4] C,2C,2C,4 | 
[V:1] G4z2G2 | 
[V:2] e2e2e2e2 | 
[V:3] E4E4 | 
[V:4] z2C,4C,2 | 
[V:1] G2G2F2A2- | 
[V:2] e4A3B | 
[V:3] E4F4 | 
[V:4] C,2C,2D,4 | 
[V:1] AGG4E2 | 
[V:2] c2B2e4 | 
[V:3] E4z2A2- | 
[V:4] A,,2E,4C,2 | 
[V:1] F2G2E4 | 
[V:2] d2B2c3B | 
[V:3] A2G2A4 | 
[V:4] D,2E,2A,,4 | 
[V:1] z2G4E2 | 
[V:2] G4z2e2 | 
[V:3] B4c4 | 
[V:4] z2E,4C,2 | 
[V:1] F2G2E4 | 
[V:2] d2B2c4 | 
[V:3] B2G2A4 | 
[V:4] D,2E,2A,,4 | 
[V:1] z2G2E2F2- | 
[V:2] B4z4 | 
[V:3] G2G4F2 | 
[V:4] z2E,2C,2D,2 | 
[V:1] FEE4D2 | 
[V:2] z8 | 
[V:3] G4A4 | 
[V:4] E,4F,4 | 
[V:1] E4z4 | 
[V:2] z2e2c2d2 | 
[V:3] B2G2A4 | 
[V:4] E,4F,4 | 
[V:1] z8 | 
[V:2] e2gfedf2- | 
[V:3] G2G4F2 | 
[V:4] E,4C,2D,2 | 
[V:1] z8 | 
[V:2] fee4d2 | 
[V:3] G4A4 | 
[V:4] E,4F,3E, | 
[V:1] z2G2G2G2 | 
[V:2] e8 | 
[V:3] G4z2c2- | 
[V:4] C,8 | 
[V:1] A2B3Gc2 | 
[V:2] z8 | 
[V:3] c2d2e4 | 
[V:4] z8 | 
[V:1] B2A4GF | 
[V:2] z8 | 
[V:3] e2f4ed | 
[V:4] z8 | 
[V:1] E4z4 | 
[V:2] z2g2e2f2- | 
[V:3] c6d2- | 
[V:4] z8 | 
[V:1] z8 | 
[V:2] fec2d4 | 
[V:3] dcA2B4 | 
[V:4] z4G,,4 | 
[V:1] z8 | 
[V:2] e2c2e3f | 
[V:3] c8 | 
[V:4] C,6D,2 | 
[V:1] z8 | 
[V:2] g4G4 | 
[V:3] G4z2c2- | 
[V:4] E,2E,2E,2E,2 | 
[V:1] z4G2G2 | 
[V:2] A3Bc4 | 
[V:3] c2d2e4 | 
[V:4] F,3E,C,4 | 
[V:1] G2A4GF | 
[V:2] z8 | 
[V:3] e2f4ed | 
[V:4] z8 | 
[V:1] E2c4B2 | 
[V:2] z2A4B2 | 
[V:3] c6d2- | 
[V:4] C3B,A,2G,2 | 
[V:1] A3GF4 | 
[V:2] c4d4 | 
[V:3] dcA2B4 | 
[V:4] F,3E,D,4 | 
[V:1] E8 | 
[V:2] z2G2A3B | 
[V:3] c8 | 
[V:4] C,4z4 | 
[V:1] z8 | 
[V:2] c8 | 
[V:3] z4c4 | 
[V:4] C,3D,E,2F,2- | 
[V:1] z8 | 
[V:2] z4z2G2 | 
[V:3] d4e4 | 
[V:4] F,E,F,G,C,4 | 
[V:1] z8 | 
[V:2] AGABc2d2- | 
[V:3] c3de2f2- | 
[V:4] z8 | 
[V:1] z8 | 
[V:2] dcc4B2 | 
[V:3] fedcd4 | 
[V:4] z8 | 
[V:1] z8 | 
[V:2] c8 | 
[V:3] z4c4 | 
[V:4] C,3D,E,2F,2- | 
[V:1] z4z2G2 | 
[V:2] z8 | 
[V:3] d4e4 | 
[V:4] F,E,F,G,C,4 | 
[V:1] AGABc2d2- | 
[V:2] z8 | 
[V:3] c3de2f2- | 
[V:4] z8 | 
[V:1] dcc4B2 | 
[V:2] z8 | 
[V:3] fedcd4 | 
[V:4] z8 | 
[V:1] c2A4GF | 
[V:2] z8 | 
[V:3] c2c4B2 | 
[V:4] C,4D,4 | 
[V:1] E4z4 | 
[V:2] c4d4 | 
[V:3] c2c4B2 | 
[V:4] C,4G,4 | 
[V:1] c4d2e2- | 
[V:2] c4g4 | 
[V:3] c4z4 | 
[V:4] z2C2B,2C2- | 
[V:1] e2dcB2c2- | 
[V:2] e2f2g4- | 
[V:3] c4d2e2- | 
[V:4] C2B,A,G,2C,2 | 
[V:1] c2BAG2A2- | 
[V:2] g2fed2e2- | 
[V:3] e2dcB2c2- | 
[V:4] C,4z4 | 
[V:1] A2GFE2F2- | 
[V:2] e2dcB2c2- | 
[V:3] c2BAG2A2 | 
[V:4] C,4z4 | 
[V:1] FEE4D2 | 
[V:2] cBG2a4 | 
[V:3] G2E2F4 | 
[V:4] C,4z4 | 
[V:1] E2e2d2e2- | 
[V:2] g8- | 
[V:3] c4z4 | 
[V:4] C,2C2B,2C2- | 
[V:1] e2dcB2c2 | 
[V:2] g8- | 
[V:3] c4d2e2- | 
[V:4] C2B,A,G,2C,2 | 
[V:1] z2e2d2e2- | 
[V:2] g8 | 
[V:3] e2dcB2c2- | 
[V:4] C,4z4 | 
[V:1] e2dcB2c2- | 
[V:2] e3fg2c2- | 
[V:3] c2BAG2A2 | 
[V:4] C,3D,E,2A,,2 | 
[V:1] cBG2A4 | 
[V:2] cde4d2 | 
[V:3] G2E2F4 | 
[V:4] E,4z4 | 
[V:1] G4z2E2- | 
[V:2] e3dB2c2- | 
[V:3] E8- | 
[V:4] E,3F,G,2C,2- | 
[V:1] EFG2C4 | 
[V:2] cBG2A2c2 | 
[V:3] E8- | 
[V:4] C,D,E,2A,,4 | 
[V:1] G8 |]  
[V:2] B8 |]  
[V:3] E8 |]  
[V:4] E,8 |]  



